dist/static/img/common/logo_element.svg

<svg width="900" height="328" viewBox="0 0 900 328" fill="none" xmlns="http://www.w3.org/2000/svg">
<g clip-path="url(#clip0_524_431)">
<g opacity="0.75">
<path d="M140 0H0V328H140V0Z" fill="#1F5AFF"/>
<path d="M140 0H0V328H140V0Z" fill="url(#paint0_linear_524_431)"/>
</g>
<g opacity="0.75">
<path d="M140.33 0H0V236.541H140.33C171.62 236.302 201.548 223.736 223.59 201.582C245.631 179.428 258 149.482 258 118.271C258 87.0594 245.631 57.1133 223.59 34.9593C201.548 12.8052 171.62 0.239194 140.33 0V0Z" fill="#1F5AFF"/>
<path d="M140.33 0H0V236.541H140.33C171.62 236.302 201.548 223.736 223.59 201.582C245.631 179.428 258 149.482 258 118.271C258 87.0594 245.631 57.1133 223.59 34.9593C201.548 12.8052 171.62 0.239194 140.33 0V0Z" fill="url(#paint1_linear_524_431)"/>
</g>
<g opacity="0.75">
<path d="M559.098 328H338V0.00408936L559.098 328Z" fill="#1F5AFF"/>
<path d="M559.098 328H338V0.00408936L559.098 328Z" fill="url(#paint2_linear_524_431)"/>
</g>
<g opacity="0.75">
<path d="M441.346 0.00346543H338V235.986H441.346C456.885 236.106 472.293 233.142 486.684 227.266C501.074 221.389 514.162 212.717 525.192 201.749C536.222 190.781 544.976 177.733 550.95 163.358C556.924 148.984 560 133.566 560 117.995C560 102.423 556.924 87.006 550.95 72.6314C544.976 58.2567 536.222 45.2092 525.192 34.2408C514.162 23.2724 501.074 14.6002 486.684 8.72408C472.293 2.84795 456.885 -0.11587 441.346 0.00346543V0.00346543Z" fill="#1F5AFF"/>
<path d="M441.346 0.00346543H338V235.986H441.346C456.885 236.106 472.293 233.142 486.684 227.266C501.074 221.389 514.162 212.717 525.192 201.749C536.222 190.781 544.976 177.733 550.95 163.358C556.924 148.984 560 133.566 560 117.995C560 102.423 556.924 87.006 550.95 72.6314C544.976 58.2567 536.222 45.2092 525.192 34.2408C514.162 23.2724 501.074 14.6002 486.684 8.72408C472.293 2.84795 456.885 -0.11587 441.346 0.00346543V0.00346543Z" fill="url(#paint3_linear_524_431)"/>
</g>
<g opacity="0.75">
<path d="M803.995 327.981C894.568 327.981 967.991 254.56 967.991 163.99C967.991 73.421 894.568 0 803.995 0C713.423 0 640 73.421 640 163.99C640 254.56 713.423 327.981 803.995 327.981Z" fill="#1F5AFF"/>
<path d="M803.995 327.981C894.568 327.981 967.991 254.56 967.991 163.99C967.991 73.421 894.568 0 803.995 0C713.423 0 640 73.421 640 163.99C640 254.56 713.423 327.981 803.995 327.981Z" fill="url(#paint4_linear_524_431)"/>
</g>
<g opacity="0.75">
<path d="M688.04 279.97C718.798 310.723 760.514 327.998 804.009 327.996C847.505 327.993 889.218 310.713 919.972 279.956C950.727 249.199 968.003 207.485 968 163.99C967.997 120.496 950.716 78.7842 919.958 48.0309L688.04 279.97Z" fill="#1F5AFF"/>
<path d="M688.04 279.97C718.798 310.723 760.514 327.998 804.009 327.996C847.505 327.993 889.218 310.713 919.972 279.956C950.727 249.199 968.003 207.485 968 163.99C967.997 120.496 950.716 78.7842 919.958 48.0309L688.04 279.97Z" fill="url(#paint5_linear_524_431)"/>
</g>
</g>
<defs>
<linearGradient id="paint0_linear_524_431" x1="70" y1="-393.931" x2="70" y2="328" gradientUnits="userSpaceOnUse">
<stop stop-color="#D5EBFF"/>
<stop offset="1" stop-color="#D5EBFF" stop-opacity="0"/>
</linearGradient>
<linearGradient id="paint1_linear_524_431" x1="129" y1="-284.088" x2="129" y2="236.541" gradientUnits="userSpaceOnUse">
<stop stop-color="#D5EBFF"/>
<stop offset="1" stop-color="#D5EBFF" stop-opacity="0"/>
</linearGradient>
<linearGradient id="paint2_linear_524_431" x1="448.549" y1="-393.922" x2="448.549" y2="328" gradientUnits="userSpaceOnUse">
<stop stop-color="#D5EBFF"/>
<stop offset="1" stop-color="#D5EBFF" stop-opacity="0"/>
</linearGradient>
<linearGradient id="paint3_linear_524_431" x1="449" y1="-283.426" x2="449" y2="235.99" gradientUnits="userSpaceOnUse">
<stop stop-color="#D5EBFF"/>
<stop offset="1" stop-color="#D5EBFF" stop-opacity="0"/>
</linearGradient>
<linearGradient id="paint4_linear_524_431" x1="803.995" y1="-393.909" x2="803.995" y2="327.981" gradientUnits="userSpaceOnUse">
<stop stop-color="#D5EBFF"/>
<stop offset="1" stop-color="#D5EBFF" stop-opacity="0"/>
</linearGradient>
<linearGradient id="paint5_linear_524_431" x1="828.02" y1="-288.21" x2="828.02" y2="327.996" gradientUnits="userSpaceOnUse">
<stop stop-color="#D5EBFF"/>
<stop offset="1" stop-color="#D5EBFF" stop-opacity="0"/>
</linearGradient>
<clipPath id="clip0_524_431">
<rect width="968" height="328" fill="white"/>
</clipPath>
</defs>
</svg>

<svg width="900" height="328" viewBox="0 0 900 328" fill="none" xmlns="http://www.w3.org/2000/svg"><g clip-path="url(#clip0_524_431)"><g opacity=".75"><path d="M140 0H0v328h140V0z" fill="#1F5AFF"/><path d="M140 0H0v328h140V0z" fill="url(#paint0_linear_524_431)"/></g><g opacity=".75"><path d="M140.33 0H0v236.541h140.33c31.29-.239 61.218-12.805 83.26-34.959 22.041-22.154 34.41-52.1 34.41-83.311 0-31.212-12.369-61.158-34.41-83.312C201.548 12.805 171.62.24 140.33 0z" fill="#1F5AFF"/><path d="M140.33 0H0v236.541h140.33c31.29-.239 61.218-12.805 83.26-34.959 22.041-22.154 34.41-52.1 34.41-83.311 0-31.212-12.369-61.158-34.41-83.312C201.548 12.805 171.62.24 140.33 0z" fill="url(#paint1_linear_524_431)"/></g><g opacity=".75"><path d="M559.098 328H338V.004L559.098 328z" fill="#1F5AFF"/><path d="M559.098 328H338V.004L559.098 328z" fill="url(#paint2_linear_524_431)"/></g><g opacity=".75"><path d="M441.346.003H338v235.983h103.346a117.53 117.53 0 0045.338-8.72 117.758 117.758 0 0038.508-25.517 118 118 0 0025.758-38.391 118.205 118.205 0 000-90.727 118.005 118.005 0 00-25.758-38.39 117.737 117.737 0 00-38.508-25.517 117.54 117.54 0 00-45.338-8.72z" fill="#1F5AFF"/><path d="M441.346.003H338v235.983h103.346a117.53 117.53 0 0045.338-8.72 117.758 117.758 0 0038.508-25.517 118 118 0 0025.758-38.391 118.205 118.205 0 000-90.727 118.005 118.005 0 00-25.758-38.39 117.737 117.737 0 00-38.508-25.517 117.54 117.54 0 00-45.338-8.72z" fill="url(#paint3_linear_524_431)"/></g><g opacity=".75"><path d="M803.995 327.981c90.573 0 163.996-73.421 163.996-163.991C967.991 73.421 894.568 0 803.995 0 713.423 0 640 73.421 640 163.99c0 90.57 73.423 163.991 163.995 163.991z" fill="#1F5AFF"/><path d="M803.995 327.981c90.573 0 163.996-73.421 163.996-163.991C967.991 73.421 894.568 0 803.995 0 713.423 0 640 73.421 640 163.99c0 90.57 73.423 163.991 163.995 163.991z" fill="url(#paint4_linear_524_431)"/></g><g opacity=".75"><path d="M688.04 279.97a164.008 164.008 0 00231.932-.014 163.989 163.989 0 00-.014-231.925L688.04 279.97z" fill="#1F5AFF"/><path d="M688.04 279.97a164.008 164.008 0 00231.932-.014 163.989 163.989 0 00-.014-231.925L688.04 279.97z" fill="url(#paint5_linear_524_431)"/></g></g><defs><linearGradient id="paint0_linear_524_431" x1="70" y1="-393.931" x2="70" y2="328" gradientUnits="userSpaceOnUse"><stop stop-color="#D5EBFF"/><stop offset="1" stop-color="#D5EBFF" stop-opacity="0"/></linearGradient><linearGradient id="paint1_linear_524_431" x1="129" y1="-284.088" x2="129" y2="236.541" gradientUnits="userSpaceOnUse"><stop stop-color="#D5EBFF"/><stop offset="1" stop-color="#D5EBFF" stop-opacity="0"/></linearGradient><linearGradient id="paint2_linear_524_431" x1="448.549" y1="-393.922" x2="448.549" y2="328" gradientUnits="userSpaceOnUse"><stop stop-color="#D5EBFF"/><stop offset="1" stop-color="#D5EBFF" stop-opacity="0"/></linearGradient><linearGradient id="paint3_linear_524_431" x1="449" y1="-283.426" x2="449" y2="235.99" gradientUnits="userSpaceOnUse"><stop stop-color="#D5EBFF"/><stop offset="1" stop-color="#D5EBFF" stop-opacity="0"/></linearGradient><linearGradient id="paint4_linear_524_431" x1="803.995" y1="-393.909" x2="803.995" y2="327.981" gradientUnits="userSpaceOnUse"><stop stop-color="#D5EBFF"/><stop offset="1" stop-color="#D5EBFF" stop-opacity="0"/></linearGradient><linearGradient id="paint5_linear_524_431" x1="828.02" y1="-288.21" x2="828.02" y2="327.996" gradientUnits="userSpaceOnUse"><stop stop-color="#D5EBFF"/><stop offset="1" stop-color="#D5EBFF" stop-opacity="0"/></linearGradient><clipPath id="clip0_524_431"><path fill="#fff" d="M0 0h968v328H0z"/></clipPath></defs></svg>
